teeny/outline/archive.svg

<svg width="15" height="15" viewBox="0 0 15 15" fill="none" xmlns="http://www.w3.org/2000/svg">
<path d="M5 8.5H10M0.5 0.5H14.5V4.5H0.5V0.5ZM1.5 4.5V13.5C1.5 14.0523 1.94772 14.5 2.5 14.5H12.5C13.0523 14.5 13.5 14.0523 13.5 13.5V4.5H1.5Z" stroke="black"/>
</svg>

<svg viewBox="0 0 15 15" xmlns="http://www.w3.org/2000/svg"><path fill="none" stroke="#000" d="M5 8.5h5M.5.5h14v4H.5v-4Zm1 4v9c0 .55.44 1 1 1h10c.55 0 1-.45 1-1v-9h-12Z"/></svg>
